X:91
T:Infant THO3.091, The
O:England;London
M:C
L:1/8
Z:vmp. Peter Dunk 2011.from a transcription by Fynn Titford-Mock 2006-9
B:Thompson's Compleat Collection of 200 Favourite Country Dances Vol. III.1765-72
Q:1/4=140
K:A
e>fe>d c e2 f/g/|aedc BGFE|e>fe>d c e2 f/g/|\
aedc {B2}A4::e c2A2F2d-|dB2G2E2 g|
aedc fdcB|ceEG A2[A2A,2]::E>FE>D [cC]EAc|\
dBFD [B3/B,3/][c/C/] [B2B,2]|EFED [cC]EAc|dBAG {G}A2[A2A,2]:|

